X:7
T:Boys Of The Lough (reel), The
I:titlefont Times-Roman 24
I:partsfont Times-Roman 20
M:4/4
L:1/8
R: reel
O:Trad. (9.9.2014/NS)
K:Dmaj
dB|:"D"AF F2 A2 AB|"G"defd "A"efdB|"D"AF F2 dFAF|"A"E2ED EFGB|
"D"AF F2 A2 AB|"G"defd "A"efdB|"D"AF F2 dFAF| "A"E2EF "D"D2 :|
fg|:"D"a2 ag "D/F#" f2fe|"G"defd "A"efdB|"D"AF F2 dFAF|"A"E2EF E2fg|
"D"a2ag "D/F#"f2fe|"G"defd "A"efdB|"Hm"AF F2 "G"dFAF| "A"E2EF "D"D2 :|
%%vskip
%%begintext
Boys of the Lough
dB|: AFF2 A2AB | defd efdB | AFF2 dFAF | E2ED EFGB |
|  AFF2 A2AB | defd efdB | AFF2 dFAF | E2EF D2 :|
fg |: a2ag  f2fe | defd efdB | AFF2 dFAF |E2EF E2fg |
|   a2ag f2fe | defd efdB | AFF2 dFAF 1 E2EF D2 :|
%%endtext
%%vskip
%%vskip
%%vskip
K:Am
P:Green Groves of Erin
"Am"A2BA eABA|"G"G2Bd gedB
%%begintext
|: Am   | G      | Am    | G       |
|  Am   | G      | F        | Em    :|
|: Am   | Em   | F     | Em      |
|  Am   | G      | F     | Em     :|
%%endtext

